svg/u1f337.svg

<svg viewBox="0 0 128 128" xmlns="http://www.w3.org/2000/svg" xmlns:xlink="http://www.w3.org/1999/xlink">
  <g id="u1f337_1_">
    <g>
      <path id="SVGID_8_" d="M65.33,114.77c-3.62-0.34-9.05-0.1-14.82-3.67c-13.73-8.48-21.79-28.39-27.42-40.59 c-1.14-2.48-0.15-2.91,1.61-2.43c2.95,0.8,8.1,4.02,9.01,4.64c23.46,15.89,38.21,31.15,39.94,36.49 C75.49,114.84,67.56,114.98,65.33,114.77z" fill="#7CB342"/>
      <g>
        <defs>
          <path id="SVGID_6_" d="M65.33,114.77c-3.62-0.34-9.05-0.1-14.82-3.67c-13.73-8.48-21.79-28.39-27.42-40.59 c-1.14-2.48-0.15-2.91,1.61-2.43c2.95,0.8,8.1,4.02,9.01,4.64c23.46,15.89,38.21,31.15,39.94,36.49 C75.49,114.84,67.56,114.98,65.33,114.77z"/>
        </defs>
        <clipPath id="SVGID_1_">
          <use overflow="visible" xlink:href="#SVGID_6_"/>
        </clipPath>
        <path d="M77.22,116.12c0-13.6-6.92-17.32-6.92-17.32 c-22.28-27.22-48.5-35.38-48.5-35.38l-0.25,5.44c5.71,0.21,35.37,26.97,43.48,38.33c3.15,4.41,3.75,7.5,3.75,7.5L77.22,116.12z" clip-path="url(#SVGID_1_)" fill="#BDCF46"/>
      </g>
    </g>
    <path d="M44.34,24.64c0.6-3.94,6.74-18.47,16.12-19.07c6.44-0.42,13.98,5.47,15.88,14.56 c1.83,8.77,4.26,17.9,0.08,26.15c-3.48,6.86-11.37,14.96-19.78,9.94C47.2,50.59,42.51,36.38,44.34,24.64z" fill="#EB4E9D"/>
    <path d="M50.52,24.5c0.38-2.48,4.24-11.6,10.13-11.99c4.05-0.26,8.79,3.43,9.98,9.16 c1.15,5.52,2.67,11.26,0.05,16.44c-2.19,4.32-7.16,9.41-12.44,6.26C52.31,40.82,49.38,31.88,50.52,24.5z" fill="#F387AB"/>
    <path d="M68.22,111.32c-0.12,0.44-0.28,0.87-0.45,1.29c-0.31,0.78-0.62,1.56-0.95,2.34 c-0.28,0.64-0.56,1.43-1.29,1.7c-0.91,0.35-2.05,0.19-2.96-0.08c-3.78-1.11-2.45-4.65-1.84-7.4c1.22-5.54,2.38-11.15,2.78-16.81 c0.41-5.84,0.02-11.7,0.02-17.55c0-0.11,0.01-2.49-0.08-2.49h7.46c0,0.91,0,1.83,0,2.74c0,4.24,0.01,8.47-0.08,12.7 C70.64,95.6,70.49,103.71,68.22,111.32z" fill="#7CB342"/>
    <g>
      <path id="SVGID_2_" d="M53.94,118.6c1.74-5.34,16.48-20.6,39.94-36.49c0.91-0.62,6.07-3.85,9.01-4.64 c1.76-0.48,2.76-0.05,1.61,2.43c-5.63,12.2-13.69,32.11-27.42,40.59c-5.77,3.56-11.2,3.33-14.82,3.67 C60.04,124.36,52.11,124.22,53.94,118.6z" fill="#7CB342"/>
      <g>
        <defs>
          <path id="SVGID_4_" d="M53.94,118.6c1.74-5.34,16.48-20.6,39.94-36.49c0.91-0.62,6.07-3.85,9.01-4.64 c1.76-0.48,2.76-0.05,1.61,2.43c-5.63,12.2-13.69,32.11-27.42,40.59c-5.77,3.56-11.2,3.33-14.82,3.67 C60.04,124.36,52.11,124.22,53.94,118.6z"/>
        </defs>
        <clipPath id="SVGID_3_">
          <use overflow="visible" xlink:href="#SVGID_4_"/>
        </clipPath>
        <path d="M58.82,124.07c0,0,0.6-3.09,3.75-7.5c8.1-11.36,37.77-38.12,43.48-38.33 l-0.25-5.44c0,0-26.22,8.16-48.5,35.38c0,0-6.92,3.71-6.92,17.32L58.82,124.07z" clip-path="url(#SVGID_3_)" fill="#BDCF46"/>
      </g>
    </g>
    <path d="M75.62,12.39c2.49-2.55,7.2-6.78,12.1-1.85c-1.6-2.43-3.16-4.05-4.5-5.02 c-2.04-1.49-4.27-1.74-6.4-0.31c-9.75,6.54-16.44,24.38-18.1,40.3c-0.05,0.49-0.1,1.62-0.1,3.18c0.79-6.08,2.19-11.22,2.65-12.59 C64.5,26.59,70.65,17.49,75.62,12.39z" fill="#EA4E9C"/>
    <g>
      <path d="M96.85,43.02c-1.58-16.83-5.44-26.85-9.14-32.48c-4.9-4.93-9.61-0.7-12.1,1.85 C70.81,17.32,64.9,26.02,61.6,35.2c-5.52-7.93-12.86-16.41-19.29-17.83c-2.35-0.52-5.16-1.03-7.91,3.14 c-1,1.51-2.04,3.82-2.82,7.02c-0.6,5.87-0.55,13.34,0.69,22.75c1.13,8.6,3.69,13.74,4.58,15.53 c6.37,12.92,19.59,14.16,21.96,14.16l0,0c11.19,1.35,18.65-2.07,18.76-2.12c0.01,0,0.01,0,0.02,0 c2.31-0.53,14.92-4.67,18.26-18.69C96.3,57.24,97.66,51.65,96.85,43.02z" fill="#F387AB"/>
      <path d="M42.31,17.37c10.74,2.36,24.05,24.46,27.11,30.77c0.27,0.56,0.98,2.56,1.69,5.3 c-0.83-4.38-1.88-7.8-2.22-8.73c-3.07-8.24-14.54-31.55-25.49-35.75c-2.4-0.92-4.52-0.18-6.17,1.73 c-2.19,2.52-4.71,7.75-5.65,16.84c0.78-3.2,1.82-5.51,2.82-7.02C37.15,16.34,39.96,16.86,42.31,17.37z" fill="#EA4E9C"/>
    </g>
  </g>
</svg>

<svg viewBox="0 0 128 128" xmlns="http://www.w3.org/2000/svg">
  <defs/>
  <path id="SVGID_8_" d="M65.33,114.77 C61.71,114.43 56.28,114.67 50.51,111.1 C36.78,102.62 28.72,82.71 23.09,70.51 C21.95,68.03 22.94,67.6 24.7,68.08 C27.65,68.88 32.8,72.1 33.71,72.72 C57.17,88.61 71.92,103.87 73.65,109.21 C75.49,114.84 67.56,114.98 65.33,114.77 Z" fill="#7CB342"/>
  <path d="M22.623,69.1 C22.451,67.879 23.348,67.711 24.7,68.08 C27.65,68.88 32.8,72.1 33.71,72.72 C57.17,88.61 71.92,103.87 73.65,109.21 C74.892,113.01 71.683,114.309 68.779,114.687 C68.759,114.586 68.127,111.526 65.03,107.19 C57.34,96.418 30.274,71.8 22.623,69.1 Z" fill="#BDCF46"/>
  <path d="M44.34,24.64 C44.94,20.7 51.08,6.17 60.46,5.57 C66.9,5.15 74.44,11.04 76.34,20.13 C78.17,28.9 80.6,38.03 76.42,46.28 C72.94,53.14 65.05,61.24 56.64,56.22 C47.2,50.59 42.51,36.38 44.34,24.64 Z" fill="#EB4E9D"/>
  <path d="M50.52,24.5 C50.9,22.02 54.76,12.9 60.65,12.51 C64.7,12.25 69.44,15.94 70.63,21.67 C71.78,27.19 73.3,32.93 70.68,38.11 C68.49,42.43 63.52,47.52 58.24,44.37 C52.31,40.82 49.38,31.88 50.52,24.5 Z" fill="#F387AB"/>
  <path d="M68.22,111.32 C68.1,111.76 67.94,112.19 67.77,112.61 C67.46,113.39 67.15,114.17 66.82,114.95 C66.54,115.59 66.26,116.38 65.53,116.65 C64.62,117 63.48,116.84 62.57,116.57 C58.79,115.46 60.12,111.92 60.73,109.17 C61.95,103.63 63.11,98.02 63.51,92.36 C63.92,86.52 63.53,80.66 63.53,74.81 C63.53,74.7 63.54,72.32 63.45,72.32 L70.91,72.32 C70.91,73.23 70.91,74.15 70.91,75.06 C70.91,79.3 70.92,83.53 70.83,87.76 C70.64,95.6 70.49,103.71 68.22,111.32 Z" fill="#7CB342"/>
  <path id="SVGID_2_" d="M53.94,118.6 C55.68,113.26 70.42,98 93.88,82.11 C94.79,81.49 99.95,78.26 102.89,77.47 C104.65,76.99 105.65,77.42 104.5,79.9 C98.87,92.1 90.81,112.01 77.08,120.49 C71.31,124.05 65.88,123.82 62.26,124.16 C60.04,124.36 52.11,124.22 53.94,118.6 Z" fill="#7CB342"/>
  <path d="M58.82,124.07 L58.816,124.071 C55.916,123.69 52.705,122.393 53.94,118.6 C55.68,113.26 70.42,98 93.88,82.11 C94.79,81.49 99.95,78.26 102.89,77.47 C104.238,77.102 105.141,77.269 104.972,78.482 C97.314,81.19 70.249,105.8 62.57,116.57 C59.42,120.98 58.82,124.07 58.82,124.07 Z" fill="#BDCF46"/>
  <path d="M75.62,12.39 C78.11,9.84 82.82,5.61 87.72,10.54 C86.12,8.11 84.56,6.49 83.22,5.52 C81.18,4.03 78.95,3.78 76.82,5.21 C67.07,11.75 60.38,29.59 58.72,45.51 C58.67,46 58.62,47.13 58.62,48.69 C59.41,42.61 60.81,37.47 61.27,36.1 C64.5,26.59 70.65,17.49 75.62,12.39 Z" fill="#EA4E9C"/>
  <path d="M96.85,43.02 C95.27,26.19 91.41,16.17 87.71,10.54 C82.81,5.61 78.1,9.84 75.61,12.39 C70.81,17.32 64.9,26.02 61.6,35.2 C56.08,27.27 48.74,18.79 42.31,17.37 C39.96,16.85 37.15,16.34 34.4,20.51 C33.4,22.02 32.36,24.33 31.58,27.53 C30.98,33.4 31.03,40.87 32.27,50.28 C33.4,58.88 35.96,64.02 36.85,65.81 C43.22,78.73 56.44,79.97 58.81,79.97 L58.81,79.97 C70,81.32 77.46,77.9 77.57,77.85 C77.58,77.85 77.58,77.85 77.59,77.85 C79.9,77.32 92.51,73.18 95.85,59.16 C96.3,57.24 97.66,51.65 96.85,43.02 Z" fill="#F387AB"/>
  <path d="M42.31,17.37 C53.05,19.73 66.36,41.83 69.42,48.14 C69.69,48.7 70.4,50.7 71.11,53.44 C70.28,49.06 69.23,45.64 68.89,44.71 C65.82,36.47 54.35,13.16 43.4,8.96 C41,8.04 38.88,8.78 37.23,10.69 C35.04,13.21 32.52,18.44 31.58,27.53 C32.36,24.33 33.4,22.02 34.4,20.51 C37.15,16.34 39.96,16.86 42.31,17.37 Z" fill="#EA4E9C"/>
</svg>
